X: 58
T: HURRY'S FAVORITE
%R: strathspey
B: Jean White "100 Popular Hornpipes, Reels, Jigs and Country Dances", Boston 1880 p.25
F: http://www.loc.gov/resource/sm1880.09124.0#seq-1
Z: 2014 John Chambers <jc:trillian.mit.edu>
M: C|
L: 1/16
K: Am
% - - - - - - - - - - - - - - - - - - - - - - - - - - - - -
e2 |\
c3Ae3A c3ee3f | g3de3g d3gB3g |\
a3eg3d e3cd3e | f3de3^g aA3 A2 :|
B2 |\
Tc4 g3c a3cg3c | f3de3c Bcd2 G3B |\
Tc4 g3c a3cg3c | f3de3^g aA3A3B |
Tc4 g3c a3cg3c | f3de3c B3cd3e |\
c3Ad3B e3cf3d | e3a ^gabg aA3 A2 H|]
% - - - - - - - - - - - - - - - - - - - - - - - - - - - - -

%%sep 1 1 500
%%sep 1 1 500
